pix_core/e/cut.svg

<!DOCTYPE svg PUBLIC "-//W3C//DTD SVG 1.1//EN" "http://www.w3.org/Graphics/SVG/1.1/DTD/svg11.dtd" [
	<!ENTITY ns_flows "http://ns.adobe.com/Flows/1.0/">
]><svg xmlns="http://www.w3.org/2000/svg" width="16" height="16" viewBox="-0.5 0 16 16" preserveAspectRatio="xMinYMid meet" overflow="visible" enable-background="new -0.5 0 16 16"><path d="M14.9 13.1c.1.9-.2 1.6-.7 2.2-.5.5-1.1.7-1.9.7-1 0-1.9-.4-2.6-1.2-.9-.9-1.3-1.9-1.1-3.1l-1.1-1.1-1.1 1.1c.2 1.1-.2 2.2-1.1 3.1-.8.8-1.7 1.2-2.7 1.2-.8 0-1.4-.2-1.9-.7-.5-.6-.8-1.3-.7-2.2.1-.9.5-1.7 1.2-2.3.7-.8 1.6-1.2 2.6-1.2h.5l1.1-1.1-4.3-4.2c-.6-.6-.8-1.3-.8-2.2s.2-1.6.8-2.1l6.4 6.4 6.4-6.4c.5.5.8 1.2.8 2.1s-.3 1.6-.8 2.1l-4.3 4.3 1.1 1.1h.5c1 0 1.9.4 2.6 1.2.7.6 1 1.4 1.1 2.3zm-9.9-.9c0-.4-.1-.7-.3-.9-.3-.2-.5-.3-.9-.3-.3 0-.5.1-.8.2-.3.1-.6.3-.8.6-.2.2-.4.5-.6.8-.1.3-.2.6-.2.8 0 .4.1.7.3.9.2.2.5.3.9.3.3 0 .5-.1.8-.2.3-.1.6-.3.8-.6.2-.2.4-.5.6-.8.1-.2.2-.5.2-.8zm4-3.7c0-.4-.1-.8-.4-1.1-.4-.2-.7-.4-1.1-.4-.5 0-.8.2-1.1.5-.3.3-.4.6-.4 1s.1.8.4 1.1c.3.3.6.4 1.1.4.4 0 .8-.1 1.1-.4.2-.3.4-.6.4-1.1zm4.5 4.9c0-.2-.1-.5-.2-.8-.1-.3-.3-.6-.6-.8-.2-.2-.5-.4-.8-.6-.3-.1-.6-.2-.8-.2-.4 0-.6.1-.9.3-.2.2-.3.5-.3.9 0 .3.1.5.2.8.1.3.3.6.6.8s.5.4.8.6c.3.1.5.2.8.2.4 0 .7-.1.9-.3.2-.3.3-.6.3-.9z" fill="#888"/></svg>

<?xml version="1.0" encoding="utf-8"?>
<!-- Generator: Adobe Illustrator 15.1.0, SVG Export Plug-In  -->
<!DOCTYPE svg PUBLIC "-//W3C//DTD SVG 1.1//EN" "http://www.w3.org/Graphics/SVG/1.1/DTD/svg11.dtd" [
	<!ENTITY ns_flows "http://ns.adobe.com/Flows/1.0/">
]>
<svg version="1.1"
	 xmlns="http://www.w3.org/2000/svg" xmlns:xlink="http://www.w3.org/1999/xlink" xmlns:a="http://ns.adobe.com/AdobeSVGViewerExtensions/3.0/"
	 x="0px" y="0px" width="16px" height="16px" viewBox="-0.5 0 16 16" style="overflow:visible;enable-background:new -0.5 0 16 16;"
	 xml:space="preserve" preserveAspectRatio="xMinYMid meet">
<defs>
</defs>
<path style="fill:#29a1c4;" d="M14.9,13.1c0.1,0.9-0.2,1.6-0.7,2.2c-0.5,0.5-1.1,0.7-1.9,0.7c-1,0-1.9-0.4-2.6-1.2
	c-0.9-0.9-1.3-1.9-1.1-3.1l-1.1-1.1l-1.1,1.1c0.2,1.1-0.2,2.2-1.1,3.1C4.5,15.6,3.6,16,2.6,16c-0.8,0-1.4-0.2-1.9-0.7
	C0.2,14.7-0.1,14,0,13.1c0.1-0.9,0.5-1.7,1.2-2.3C1.9,10,2.8,9.6,3.8,9.6h0.5l1.1-1.1L1.1,4.3C0.5,3.7,0.3,3,0.3,2.1S0.5,0.5,1.1,0
	l6.4,6.4L13.9,0c0.5,0.5,0.8,1.2,0.8,2.1s-0.3,1.6-0.8,2.1L9.6,8.5l1.1,1.1h0.5c1,0,1.9,0.4,2.6,1.2C14.5,11.4,14.8,12.2,14.9,13.1z
	 M5,12.2c0-0.4-0.1-0.7-0.3-0.9C4.4,11.1,4.2,11,3.8,11c-0.3,0-0.5,0.1-0.8,0.2c-0.3,0.1-0.6,0.3-0.8,0.6c-0.2,0.2-0.4,0.5-0.6,0.8
	c-0.1,0.3-0.2,0.6-0.2,0.8c0,0.4,0.1,0.7,0.3,0.9c0.2,0.2,0.5,0.3,0.9,0.3c0.3,0,0.5-0.1,0.8-0.2c0.3-0.1,0.6-0.3,0.8-0.6
	c0.2-0.2,0.4-0.5,0.6-0.8C4.9,12.8,5,12.5,5,12.2z M9,8.5c0-0.4-0.1-0.8-0.4-1.1C8.2,7.2,7.9,7,7.5,7C7,7,6.7,7.2,6.4,7.5
	C6.1,7.8,6,8.1,6,8.5s0.1,0.8,0.4,1.1C6.7,9.9,7,10,7.5,10c0.4,0,0.8-0.1,1.1-0.4C8.8,9.3,9,9,9,8.5z M13.5,13.4
	c0-0.2-0.1-0.5-0.2-0.8c-0.1-0.3-0.3-0.6-0.6-0.8c-0.2-0.2-0.5-0.4-0.8-0.6c-0.3-0.1-0.6-0.2-0.8-0.2c-0.4,0-0.6,0.1-0.9,0.3
	c-0.2,0.2-0.3,0.5-0.3,0.9c0,0.3,0.1,0.5,0.2,0.8c0.1,0.3,0.3,0.6,0.6,0.8s0.5,0.4,0.8,0.6c0.3,0.1,0.5,0.2,0.8,0.2
	c0.4,0,0.7-0.1,0.9-0.3C13.4,14,13.5,13.7,13.5,13.4z"/>
</svg>
